X: 1
T: Arra Mountains
R: slip jig
M: 9/8
L: 1/8
K: Ador
|:EAA EAB cBc|EAA EAG {A}GFG|EAA EAB c2 d|~e3 ege dBG:|
|A2 a gef ~g3|e2 a ged Bcd|e2 a gef g2 e|dB/c/d ege dBG|
A2 a gef ~g3|e2 a ged Bcd|e/f/ge f/g/af g2 e|dB/c/d ege dBG|


Tune 1901	Setting 15324

